!!!COM: Bach, Johann Sebastian
!!!CDT: 1685/02/21/-1750/07/28/
!!!OTL@@DE: Warum betr&uuml;bst du dich, mein Herz
!!!SCT: BWV 47/5
!!!PC#: 94
!!!AGN: chorale
**harm	**kern	**kern	**kern	**kern
*	*ICvox	*ICvox	*ICvox	*ICvox
*	*Ibass	*Itenor	*Ialto	*Isoprn
*	*I"Bass	*I"Tenor	*I"Alto	*I"Soprano
*	*	*oclefC4	*oclefC3	*oclefC1
*	*clefF4	*clefGv2	*clefG2	*clefG2
*k[b-e-]	*k[b-e-]	*k[b-e-]	*k[b-e-]	*k[b-e-]
*g:	*g:	*g:	*g:	*g:
*M4/4	*M4/4	*M4/4	*M4/4	*M4/4
*met(c)	*met(c)	*met(c)	*met(c)	*met(c)
*MM100	*MM100	*MM100	*MM100	*MM100
V6/iv	4BB	4G	4d	4g
=1	=1	=1	=1	=1
iv	4C	4c	4e-	4g
i	4GG	4B-	4d	4b-
V	4D	4d	4f#	4a
i6	4B-	4d	4g	4dd
=2	=2	=2	=2	=2
V65	4F#	4d	4a	4cc
i	4G	4d	4g	4b-
V;	4D;	4d;	4f#;	4a;
i	4GG	4d	4g	4b-
=3	=3	=3	=3	=3
i	4G	4B-	4g	4g
III	4B-	4d	4fnX	4dd
V/III	4F	4f	4a	4cc
c:viio6	4D	4f	4b	4dd
=4	=4	=4	=4	=4
i6	4E-	4g	4cc	4g
V	4G	4d	4g	4b
i;	4C;	4e-;	4g;	4cc;
g:i	4G	4d	4g	4b-
=5	=5	=5	=5	=5
V	8DL	8dL	8f#L	8aL
V2	8CJ	8dJ	8f#J	8aJ
i6	4BB-	4d	4g	4dd
viio6	4AA	4F#	4a	4cc
i	4GG	4G	4d	4b-
=6	=6	=6	=6	=6
V;	2D;	2F#;	2d;	2a;
.	4r	4ry	4ry	4r
i	4GG	4B-	4d	4g
=7	=7	=7	=7	=7
i	4G	4d	4g	4b-
E-:V7/IV	4E-	4d-	4g	4b-
IV	4A-	4c	4e-	4cc
ii	4F	4A-X	4f	4cc
=8	=8	=8	=8	=8
V7	4B-	4F	4a-	4dd
V	4BB-	4f	4f	4dd
I;	4E-;	4e-;	4g;	4b-;
g:V65/iv	4BB	4f	4g	4dd
=9	=9	=9	=9	=9
iv	4C	4e-	4g	4cc
viio7/V	4C#	4e	4g	4b-
V	4D	4A	4f#	4aX
iv6	4E-	4c	4g	4g
=10	=10	=10	=10	=10
V(64)	4D	4d	4g	4b-
V7	4D	4c	4f#	4a
I;	4GG;	4B;	4d;	4g;
==	==	==	==	==
*-	*-	*-	*-	*-
!!!YOR1: 371 vierstimmige Choralges&auml;nge von Johann Sebastian Bach, 
!!!YOR2: 4th ed. by Alfred D&ouml;rffel (Leipzig: Breitkopf und H&auml;rtel, 
!!!YOR2: c.1875). 178 pp. Plate "V.A.10".  reprint: J.S. Bach, 371 Four-Part 
!!!YOR4: Chorales (New York: Associated Music Publishers, Inc., c.1940).
!!!SMS: B&H, 4th ed, Alfred D&ouml;rffel, c.1875, plate V.A.10
!!!EED:  Craig Stuart Sapp
!!!EEV:  2009/05/22
